public/theme/icons/experience.svg

<svg width="25" height="19" viewBox="0 0 25 19" fill="none" xmlns="http://www.w3.org/2000/svg">
<mask id="path-1-inside-1_215_4294" fill="white">
<path fill-rule="evenodd" clip-rule="evenodd" d="M0.328014 5.07984C-0.0956614 5.29501 -0.11273 5.88617 0.299062 6.12329C2.96465 7.65822 10.4819 11.8971 12.2033 11.8971C13.5136 11.8971 18.4238 9.44122 21.9368 7.59121V10.6651C21.901 10.6831 21.8687 10.7082 21.8421 10.7394L21.1015 11.61C20.9993 11.7301 21.0067 11.9086 21.1183 12.0199L22.5023 13.3992C22.6185 13.5149 22.8058 13.5169 22.9244 13.4037L24.3656 12.0272C24.4845 11.9136 24.4907 11.7257 24.3797 11.6045L23.5795 10.7311C23.5548 10.7042 23.5258 10.6822 23.4939 10.666V6.76298C23.9394 6.52371 24.3345 6.30963 24.6616 6.1314C25.0902 5.89792 25.0729 5.28503 24.6331 5.07366C21.779 3.70218 13.916 -5.37713e-06 12.2033 0C10.488 5.38526e-06 3.01865 3.71335 0.328014 5.07984ZM4.65182 10.8677C4.65182 10.4183 5.12311 10.1239 5.52665 10.3216C7.34088 11.2105 11.4043 13.1612 12.1257 13.1612C12.8471 13.1612 16.9105 11.2105 18.7247 10.3216C19.1283 10.1239 19.5996 10.4183 19.5996 10.8677V16.0875C19.5996 16.3015 19.4842 16.5013 19.2989 16.6083C13.7699 19.7994 10.4427 19.795 4.95123 16.6085C4.76657 16.5013 4.65182 16.302 4.65182 16.0885V10.8677Z"/>
</mask>
<path d="M0.299062 6.12329L-0.379572 7.30182L-0.379572 7.30182L0.299062 6.12329ZM0.328014 5.07984L0.943826 6.29238L0.943827 6.29238L0.328014 5.07984ZM21.9368 7.59121H23.2967V5.33801L21.3031 6.38792L21.9368 7.59121ZM21.9368 10.6651L22.5466 11.8807L23.2967 11.5043V10.6651H21.9368ZM21.8421 10.7394L20.8063 9.85822L20.8063 9.85822L21.8421 10.7394ZM21.1015 11.61L22.1373 12.4912L22.1373 12.4912L21.1015 11.61ZM21.1183 12.0199L22.0783 11.0566L22.0783 11.0566L21.1183 12.0199ZM22.5023 13.3992L21.5423 14.3624L21.5423 14.3624L22.5023 13.3992ZM22.9244 13.4037L21.9851 12.4202L21.9851 12.4202L22.9244 13.4037ZM24.3656 12.0272L23.4263 11.0437L23.4263 11.0437L24.3656 12.0272ZM24.3797 11.6045L23.3769 12.5232L23.3769 12.5232L24.3797 11.6045ZM23.5795 10.7311L22.5767 11.6497L22.5767 11.6498L23.5795 10.7311ZM23.4939 10.666H22.1339V11.4993L22.8764 11.8777L23.4939 10.666ZM23.4939 6.76298L22.8505 5.56486L22.1339 5.94966V6.76298H23.4939ZM24.6616 6.1314L25.3123 7.32562L25.3123 7.32562L24.6616 6.1314ZM24.6331 5.07366L24.044 6.29944L24.044 6.29944L24.6331 5.07366ZM12.2033 0L12.2033 -1.35996L12.2033 0ZM5.52665 10.3216L4.92829 11.5429L4.92829 11.5429L5.52665 10.3216ZM18.7247 10.3216L18.1264 9.10036L18.1264 9.10036L18.7247 10.3216ZM19.2989 16.6083L19.9787 17.7861L19.9787 17.7861L19.2989 16.6083ZM4.95123 16.6085L4.26868 17.7847L4.26868 17.7848L4.95123 16.6085ZM0.977696 4.94476C1.50828 5.25029 1.47696 6.02162 0.943826 6.29238L-0.287799 3.8673C-1.66828 4.56841 -1.73374 6.52205 -0.379572 7.30182L0.977696 4.94476ZM12.2033 10.5372C12.2077 10.5372 12.0682 10.5266 11.7174 10.4155C11.3994 10.3148 10.9982 10.1614 10.5252 9.95978C9.58108 9.55731 8.43031 8.99667 7.22841 8.37703C4.82886 7.13994 2.3046 5.70883 0.977696 4.94476L-0.379572 7.30182C0.959113 8.07268 3.52624 9.52848 5.98205 10.7946C7.20783 11.4265 8.42574 12.0215 9.45857 12.4618C9.97405 12.6816 10.4634 12.8714 10.8963 13.0085C11.2966 13.1352 11.7685 13.2571 12.2033 13.2571V10.5372ZM21.3031 6.38792C19.5539 7.3091 17.4724 8.37277 15.6739 9.20323C14.7729 9.61929 13.9625 9.96765 13.3105 10.2092C12.9841 10.3301 12.7149 10.4178 12.5047 10.4736C12.2748 10.5346 12.1898 10.5372 12.2033 10.5372V13.2571C12.8086 13.2571 13.5789 13.0104 14.2554 12.7597C15.0023 12.483 15.8847 12.1018 16.8142 11.6726C18.6766 10.8126 20.8067 9.72333 22.5705 8.79451L21.3031 6.38792ZM23.2967 10.6651V7.59121H20.5768V10.6651H23.2967ZM22.8779 11.6206C22.785 11.7299 22.6719 11.8178 22.5466 11.8807L21.3269 9.44957C21.1301 9.54833 20.9524 9.68647 20.8063 9.85822L22.8779 11.6206ZM22.1373 12.4912L22.8779 11.6206L20.8063 9.85822L20.0656 10.7288L22.1373 12.4912ZM22.0783 11.0566C22.4693 11.4462 22.4949 12.0709 22.1373 12.4912L20.0656 10.7288C19.5037 11.3894 19.5441 12.371 20.1583 12.9832L22.0783 11.0566ZM23.4623 12.4359L22.0783 11.0566L20.1583 12.9831L21.5423 14.3624L23.4623 12.4359ZM21.9851 12.4202C22.4002 12.0237 23.0557 12.0307 23.4623 12.4359L21.5423 14.3624C22.1812 14.9992 23.2114 15.0101 23.8637 14.3871L21.9851 12.4202ZM23.4263 11.0437L21.9851 12.4202L23.8637 14.3871L25.3049 13.0106L23.4263 11.0437ZM23.3769 12.5232C22.9881 12.0987 23.01 11.4413 23.4263 11.0437L25.3049 13.0106C25.959 12.3859 25.9934 11.3528 25.3824 10.6858L23.3769 12.5232ZM22.5767 11.6498L23.3769 12.5232L25.3824 10.6858L24.5823 9.81242L22.5767 11.6498ZM22.8764 11.8777C22.7649 11.8208 22.6631 11.744 22.5767 11.6497L24.5823 9.81243C24.4466 9.66431 24.2866 9.54361 24.1114 9.45431L22.8764 11.8777ZM22.1339 6.76298V10.666H24.8539V6.76298H22.1339ZM24.011 4.93717C23.686 5.11425 23.2934 5.32703 22.8505 5.56486L24.1373 7.9611C24.5855 7.7204 24.983 7.50501 25.3123 7.32562L24.011 4.93717ZM24.044 6.29944C23.4919 6.03413 23.4592 5.23779 24.011 4.93717L25.3123 7.32562C26.7211 6.55805 26.6539 4.53593 25.2221 3.84788L24.044 6.29944ZM12.2033 1.35996C12.1992 1.35996 12.2432 1.3606 12.3527 1.38032C12.456 1.39894 12.5902 1.42947 12.7573 1.47461C13.0923 1.56515 13.5128 1.70173 14.0056 1.87931C14.9895 2.23389 16.1926 2.72684 17.4503 3.27076C19.9621 4.35699 22.6223 5.61624 24.044 6.29944L25.2221 3.84788C23.7897 3.1596 21.0914 1.88202 18.53 0.774293C17.2511 0.221227 15.9889 -0.297083 14.9277 -0.679523C14.3979 -0.870448 13.9008 -1.03382 13.4669 -1.1511C13.0626 -1.26035 12.6071 -1.35996 12.2033 -1.35996L12.2033 1.35996ZM0.943827 6.29238C2.28339 5.61206 4.8029 4.35251 7.19419 3.26554C8.39174 2.72119 9.53874 2.22856 10.4808 1.87465C10.9526 1.69741 11.3551 1.56177 11.6763 1.4722C11.8363 1.42756 11.9645 1.39765 12.063 1.37953C12.167 1.36038 12.2084 1.35996 12.2033 1.35996L12.2033 -1.35996C11.7954 -1.35995 11.3434 -1.25869 10.9456 -1.14774C10.5195 -1.0289 10.036 -0.863757 9.52427 -0.671519C8.49932 -0.286472 7.2892 0.234635 6.06866 0.789433C3.62378 1.90076 1.06327 3.18113 -0.2878 3.8673L0.943827 6.29238ZM6.12502 9.10036C4.81618 8.45908 3.29187 9.41408 3.29187 10.8677H6.01178C6.01178 11.4226 5.43004 11.7887 4.92829 11.5429L6.12502 9.10036ZM12.1257 11.8012C12.2543 11.8012 12.2817 11.8274 12.1 11.773C11.963 11.7319 11.7739 11.6658 11.5343 11.5735C11.0575 11.3898 10.4512 11.1298 9.79331 10.8342C8.48135 10.2448 7.02797 9.54277 6.12502 9.10036L4.92829 11.5429C5.83956 11.9893 7.32502 12.7071 8.67868 13.3152C9.35358 13.6184 10.0118 13.9017 10.5565 14.1115C10.8276 14.216 11.0885 14.3092 11.3189 14.3783C11.5046 14.434 11.8168 14.5211 12.1257 14.5211V11.8012ZM18.1264 9.10036C17.2234 9.54277 15.77 10.2448 14.4581 10.8342C13.8002 11.1298 13.1939 11.3898 12.7171 11.5735C12.4775 11.6658 12.2883 11.7319 12.1514 11.773C11.9697 11.8274 11.9971 11.8012 12.1257 11.8012V14.5211C12.4346 14.5211 12.7468 14.434 12.9325 14.3783C13.1629 14.3092 13.4238 14.216 13.6949 14.1115C14.2396 13.9017 14.8978 13.6184 15.5727 13.3152C16.9264 12.7071 18.4118 11.9893 19.3231 11.5429L18.1264 9.10036ZM20.9595 10.8677C20.9595 9.41407 19.4352 8.45908 18.1264 9.10036L19.3231 11.5429C18.8214 11.7887 18.2396 11.4226 18.2396 10.8677H20.9595ZM20.9595 16.0875V10.8677H18.2396V16.0875H20.9595ZM19.9787 17.7861C20.5851 17.4362 20.9595 16.7873 20.9595 16.0875H18.2396C18.2396 15.8157 18.3834 15.5664 18.6191 15.4304L19.9787 17.7861ZM4.26868 17.7848C7.10294 19.4294 9.55411 20.3593 12.1107 20.3599C14.6664 20.3606 17.1265 19.4323 19.9787 17.7861L18.6191 15.4304C15.9423 16.9754 13.9743 17.6405 12.1113 17.64C10.2491 17.6396 8.29098 16.9741 5.63377 15.4322L4.26868 17.7848ZM3.29187 16.0885C3.29187 16.7865 3.66447 17.4341 4.26868 17.7847L5.63378 15.4322C5.86868 15.5685 6.01178 15.8174 6.01178 16.0885H3.29187ZM3.29187 10.8677V16.0885H6.01178V10.8677H3.29187Z" fill="url(#paint0_linear_215_4294)" mask="url(#path-1-inside-1_215_4294)"/>
<defs>
<linearGradient id="paint0_linear_215_4294" x1="7.53564e-08" y1="10.925" x2="24.9732" y2="10.925" gradientUnits="userSpaceOnUse">
<stop stop-color="#2036FF"/>
<stop offset="1" stop-color="#C348B0"/>
</linearGradient>
</defs>
</svg>

<svg xmlns="http://www.w3.org/2000/svg" width="25" height="19" fill="none">
    <mask id="b" fill="#fff">
        <path fill-rule="evenodd"
              d="M.328 5.08a.591.591 0 0 0-.029 1.043c2.666 1.535 10.183 5.774 11.904 5.774 1.31 0 6.22-2.456 9.734-4.306v3.074a.3.3 0 0 0-.095.074l-.74.871a.3.3 0 0 0 .016.41l1.384 1.38a.3.3 0 0 0 .422.004l1.442-1.377a.3.3 0 0 0 .014-.422l-.8-.874a.3.3 0 0 0-.086-.065V6.763c.445-.24.84-.453 1.168-.632a.593.593 0 0 0-.029-1.057C21.78 3.702 13.916 0 12.203 0 10.488 0 3.02 3.713.328 5.08m4.324 5.788c0-.45.471-.744.875-.546 1.814.889 5.877 2.84 6.599 2.84.721 0 4.784-1.952 6.599-2.84a.608.608 0 0 1 .875.546v5.22a.6.6 0 0 1-.301.52c-5.53 3.191-8.856 3.187-14.348 0a.6.6 0 0 1-.3-.52z"
              clip-rule="evenodd"/>
    </mask>
    <path fill="url(#a)"
          d="m.3 6.123-.68 1.179zM.327 5.08l.616 1.212zM21.937 7.59h1.36V5.338l-1.994 1.05zm0 3.074.61 1.216.75-.377v-.839zm-.095.074-1.036-.88zm-.74.871 1.035.881zm.016.41.96-.963zm1.384 1.38-.96.962zm.422.004-.939-.984zm1.442-1.377-.94-.983zm.014-.422-1.003.918zm-.8-.874-1.003.919zm-.086-.065h-1.36v.833l.742.379zm0-3.903-.643-1.198-.717.385v.813zm1.168-.632.65 1.195zm-.029-1.057-.589 1.225zM12.203 0v-1.36zM5.527 10.322l-.599 1.22zm13.198 0L18.126 9.1zm.574 6.286.68 1.178zm-14.348 0-.682 1.177zM.978 4.945a.769.769 0 0 1-.034 1.347L-.288 3.867c-1.38.701-1.446 2.655-.092 3.435zm11.225 5.592c.005 0-.135-.01-.486-.122a14 14 0 0 1-1.192-.455c-.944-.403-2.095-.963-3.297-1.583-2.4-1.237-4.923-2.668-6.25-3.432L-.38 7.302c1.34.77 3.906 2.226 6.362 3.493 1.226.632 2.444 1.226 3.477 1.667.515.22 1.004.41 1.437.547.4.126.872.248 1.307.248zm9.1-4.15c-1.75.922-3.83 1.986-5.63 2.816a35 35 0 0 1-2.363 1.006q-.49.181-.805.265c-.23.06-.315.063-.302.063v2.72c.606 0 1.376-.247 2.052-.497.747-.277 1.63-.658 2.56-1.087 1.862-.86 3.992-1.95 5.755-2.878zm1.994 4.278V7.591h-2.72v3.074zm-.42.956c-.092.109-.205.197-.33.26l-1.22-2.431a1.7 1.7 0 0 0-.52.408zm-.74.87.74-.87-2.07-1.763-.741.87zm-.059-1.434c.391.39.417 1.014.06 1.434l-2.072-1.762a1.66 1.66 0 0 0 .092 2.254zm1.384 1.379-1.384-1.38-1.92 1.927 1.384 1.38zm-1.477-.016a1.06 1.06 0 0 1 1.477.016l-1.92 1.926c.64.637 1.67.648 2.322.025zm1.441-1.376-1.44 1.376 1.878 1.967 1.44-1.376zm-.05 1.48a1.06 1.06 0 0 1 .05-1.48l1.879 1.967a1.66 1.66 0 0 0 .077-2.325zm-.8-.874.8.873 2.006-1.837-.8-.874zm.3.228a1.1 1.1 0 0 1-.3-.228l2.006-1.838a1.7 1.7 0 0 0-.47-.358zm-.742-5.115v3.903h2.72V6.763zm1.877-1.826c-.325.177-.718.39-1.16.628l1.286 2.396c.448-.24.846-.456 1.175-.635zm.033 1.362a.768.768 0 0 1-.033-1.362l1.301 2.389c1.41-.768 1.342-2.79-.09-3.478zM12.204 1.36c-.005 0 .04 0 .149.02q.154.028.404.095c.335.09.756.227 1.249.404.983.355 2.187.848 3.444 1.392a195 195 0 0 1 6.594 3.028l1.178-2.451A198 198 0 0 0 18.53.774 65 65 0 0 0 14.928-.68c-.53-.19-1.027-.354-1.461-.471-.404-.11-.86-.209-1.264-.209zM.943 6.292c1.34-.68 3.859-1.94 6.25-3.026a56 56 0 0 1 3.287-1.391c.472-.178.874-.313 1.195-.403q.24-.066.387-.092c.104-.02.145-.02.14-.02v-2.72c-.408 0-.86.101-1.257.212-.426.12-.91.284-1.422.476A58 58 0 0 0 6.07.79 174 174 0 0 0-.288 3.867zM6.125 9.1c-1.309-.64-2.833.314-2.833 1.768h2.72a.752.752 0 0 1-1.084.675zm6 2.701c.13 0 .157.026-.025-.028a8 8 0 0 1-.566-.2 37 37 0 0 1-1.74-.739A130 130 0 0 1 6.124 9.1l-1.197 2.443c.912.446 2.397 1.164 3.75 1.772a39 39 0 0 0 1.878.797c.272.104.533.197.763.266.186.056.498.143.807.143zm6.001-2.7c-.903.442-2.356 1.144-3.668 1.733-.658.296-1.264.556-1.74.74a8 8 0 0 1-.567.199c-.181.054-.154.028-.025.028v2.72c.309 0 .62-.087.806-.143.23-.069.492-.162.763-.267a39 39 0 0 0 1.878-.796c1.353-.608 2.839-1.326 3.75-1.772zm2.833 1.767c0-1.454-1.524-2.409-2.833-1.768l1.197 2.443a.752.752 0 0 1-1.083-.675zm0 5.22v-5.22h-2.72v5.22zm-.98 1.698c.606-.35.98-.999.98-1.699h-2.72c0-.271.144-.52.38-.657zm-15.71-.001c2.834 1.644 5.285 2.574 7.842 2.575 2.555 0 5.015-.928 7.868-2.574l-1.36-2.356c-2.677 1.545-4.645 2.21-6.508 2.21-1.862 0-3.82-.666-6.477-2.208zm-.977-1.697c0 .698.372 1.346.977 1.697l1.365-2.353a.76.76 0 0 1 .378.656zm0-5.22v5.22h2.72v-5.22z"
          mask="url(#b)"/>
    <defs>
        <linearGradient id="a" x1="0" x2="24.973" y1="10.925" y2="10.925" gradientUnits="userSpaceOnUse">
            <stop stop-color="#2036FF"/>
            <stop offset="1" stop-color="#C348B0"/>
        </linearGradient>
    </defs>
</svg>
